X:1
T:Sweet Jenny Jones
C:Traditional
M:3/4
L:1/4
Q:1/4=120
K:G
G/2A/2|BGD|E3/2F/2G|ABd|cAc|BGD|E3/2F/2G|GBA|G3|dBG|A3/2B/2c|dfa|gec|dBG|A3/2B/2c|Bdc|B3|]
